optimized/24/outline/sigma.svg

<svg viewBox="0 0 24 24" fill="none" xmlns="http://www.w3.org/2000/svg">
  <g clip-path="url(#clip0_2627_42227)">
    <path d="M6.60363 3C5.1001 3 4.29654 4.77086 5.28662 5.90238L10.2592 11.8354C10.3417 11.9296 10.3417 12.0704 10.2592 12.1646L5.28662 18.0976C4.29653 19.2291 5.1001 21 6.60363 21H17.3999C18.3664 21 19.1499 20.2165 19.1499 19.25V17.25C19.1499 16.8358 18.8141 16.5 18.3999 16.5C17.9856 16.5 17.6499 16.8358 17.6499 17.25V19.25C17.6499 19.3881 17.5379 19.5 17.3999 19.5H6.60363C6.38883 19.5 6.27404 19.247 6.41548 19.0854L11.3881 13.1524C11.9654 12.4926 11.9654 11.5074 11.3881 10.8476L6.41548 4.91463C6.27404 4.75298 6.38884 4.5 6.60363 4.5H17.3999C17.5379 4.5 17.6499 4.61193 17.6499 4.75V6.75C17.6499 7.16421 17.9856 7.5 18.3999 7.5C18.8141 7.5 19.1499 7.16421 19.1499 6.75V4.75C19.1499 3.7835 18.3664 3 17.3999 3H6.60363Z" fill="#333333"/>
  </g>
  <defs>
    <clipPath id="clip0_2627_42227">
      <rect width="24" height="24" fill="white"/>
    </clipPath>
  </defs>
</svg>

<svg xmlns="http://www.w3.org/2000/svg" width="24" height="24" fill="none">
  <g clip-path="url(#a)">
    <path fill="#333" d="M6.604 3C5.1 3 4.297 4.77 5.287 5.902l4.972 5.933a.25.25 0 0 1 0 .33l-4.972 5.933C4.297 19.229 5.1 21 6.604 21H17.4a1.75 1.75 0 0 0 1.75-1.75v-2a.75.75 0 0 0-1.5 0v2a.25.25 0 0 1-.25.25H6.604a.25.25 0 0 1-.189-.415l4.973-5.933a1.75 1.75 0 0 0 0-2.304L6.415 4.915a.25.25 0 0 1 .189-.415H17.4a.25.25 0 0 1 .25.25v2a.75.75 0 1 0 1.5 0v-2A1.75 1.75 0 0 0 17.4 3H6.604Z"/>
  </g>
  <defs>
    <clipPath id="a">
      <path fill="#fff" d="M0 0h24v24H0z"/>
    </clipPath>
  </defs>
</svg>
